X:474
T:Road To Glenmore 
C:Joe Buchanan's Scottish Tome - Page 106.0
I:106 0
R:Polka
Z:Carl Allison
L:1/16
M:2/4
K:D
fe | "D" d2D2 "G" GFED | "D" F2A2 "A(D)" A2de | "D" f2d2 "Bm" gfed | "E7" B2e2 "A7" egfe |
| "D" d2D2 "G" GFED | "D" F2A2 "A(D)" A2d2 | "E7" BcdB "A" ABde | "D" f2d2 "D" d2 :|
fg | "D" a2d2 f2ed | "D" a2d2 "A(D)" f2ed | "A" c2A2 "E(A)" e2A2 | "A" cdef "E(A)" g2fg |
| "D" a2d2 f2ed | "D" a2d2 "A(D)" f2d2 | "E7" BcdB "A7" ABde | "D" f2d2 f2g2 |
| "D" a2d2 f2ed | "D" a2d2 "A(D)" f2ed | "A" c2A2 "E(A)" e2A2 | "A" cdef "E(A)" g2fe |
| "D" d2D2 "G" GFED | "D" F2A2 "A(D)" A2d2 | "E7" BcdB "A7" ABde | "D" f2d2 "D" d2 |]

